static/img/kroki/bd5d1439968783994e3dd28dba96fb71.svg

<?xml version="1.0" encoding="us-ascii" standalone="no"?><svg xmlns="http://www.w3.org/2000/svg" xmlns:xlink="http://www.w3.org/1999/xlink" contentStyleType="text/css" height="680px" preserveAspectRatio="none" style="width:315px;height:680px;" version="1.1" viewBox="0 0 315 680" width="315px" zoomAndPan="magnify"><defs/><g><!--class azure_resource--><g id="elem_azure_resource"><rect codeLine="22" fill="#3D176E" height="39.7891" id="azure_resource" rx="2.5" ry="2.5" style="stroke:#000D19;stroke-width:0.5;" width="168" x="73.5" y="438.76"/><ellipse cx="88.5" cy="458.6545" fill="#ADD1B2" rx="11" ry="11" style="stroke:#181818;stroke-width:1.0;"/><path d="M91.4688,464.2952 Q90.8906,464.592 90.25,464.7327 Q89.6094,464.8889 88.9063,464.8889 Q86.4063,464.8889 85.0781,463.2483 Q83.7656,461.592 83.7656,458.467 Q83.7656,455.342 85.0781,453.6858 Q86.4063,452.0295 88.9063,452.0295 Q89.6094,452.0295 90.25,452.1858 Q90.9063,452.342 91.4688,452.6389 L91.4688,455.3577 Q90.8438,454.7795 90.25,454.5139 Q89.6563,454.2327 89.0313,454.2327 Q87.6875,454.2327 87,455.3108 Q86.3125,456.3733 86.3125,458.467 Q86.3125,460.5608 87,461.6389 Q87.6875,462.7014 89.0313,462.7014 Q89.6563,462.7014 90.25,462.4358 Q90.8438,462.1545 91.4688,461.5764 L91.4688,464.2952 Z " fill="#000000"/><text fill="#D9B8FF" font-family="Helvetica" font-size="17" lengthAdjust="spacing" textLength="126" x="107.5" y="464.5398">azure_resource</text></g><!--class azure_ssh_public_key_resource--><g id="elem_azure_ssh_public_key_resource"><rect codeLine="24" fill="#3D176E" height="74.0859" id="azure_ssh_public_key_resource" rx="2.5" ry="2.5" style="stroke:#000D19;stroke-width:0.5;" width="301" x="7" y="599.54"/><ellipse cx="22" cy="619.4345" fill="#ADD1B2" rx="11" ry="11" style="stroke:#181818;stroke-width:1.0;"/><path d="M24.9688,625.0752 Q24.3906,625.372 23.75,625.5127 Q23.1094,625.6689 22.4063,625.6689 Q19.9063,625.6689 18.5781,624.0283 Q17.2656,622.372 17.2656,619.247 Q17.2656,616.122 18.5781,614.4658 Q19.9063,612.8095 22.4063,612.8095 Q23.1094,612.8095 23.75,612.9658 Q24.4063,613.122 24.9688,613.4189 L24.9688,616.1377 Q24.3438,615.5595 23.75,615.2939 Q23.1563,615.0127 22.5313,615.0127 Q21.1875,615.0127 20.5,616.0908 Q19.8125,617.1533 19.8125,619.247 Q19.8125,621.3408 20.5,622.4189 Q21.1875,623.4814 22.5313,623.4814 Q23.1563,623.4814 23.75,623.2158 Q24.3438,622.9345 24.9688,622.3564 L24.9688,625.0752 Z " fill="#000000"/><text fill="#D9B8FF" font-family="Helvetica" font-size="17" lengthAdjust="spacing" textLength="259" x="41" y="625.3198">azure_ssh_public_key_resource</text><line style="stroke:#000D19;stroke-width:0.5;" x1="8" x2="307" y1="639.3291" y2="639.3291"/><text fill="#D9B8FF" font-family="sans-serif" font-size="14" font-weight="bold" lengthAdjust="spacing" textLength="83" x="18" y="661.3242">properties</text><text fill="#D9B8FF" font-family="sans-serif" font-size="14" lengthAdjust="spacing" textLength="48" x="101" y="661.3242">: string</text></g><!--class resource--><g id="elem_resource"><rect codeLine="27" fill="#3D176E" height="310.7578" id="resource" rx="2.5" ry="2.5" style="stroke:#000D19;stroke-width:0.5;" width="227" x="44" y="7"/><ellipse cx="112.75" cy="26.8945" fill="#ADD1B2" rx="11" ry="11" style="stroke:#181818;stroke-width:1.0;"/><path d="M115.7188,32.5352 Q115.1406,32.832 114.5,32.9727 Q113.8594,33.1289 113.1563,33.1289 Q110.6563,33.1289 109.3281,31.4883 Q108.0156,29.832 108.0156,26.707 Q108.0156,23.582 109.3281,21.9258 Q110.6563,20.2695 113.1563,20.2695 Q113.8594,20.2695 114.5,20.4258 Q115.1563,20.582 115.7188,20.8789 L115.7188,23.5977 Q115.0938,23.0195 114.5,22.7539 Q113.9063,22.4727 113.2813,22.4727 Q111.9375,22.4727 111.25,23.5508 Q110.5625,24.6133 110.5625,26.707 Q110.5625,28.8008 111.25,29.8789 Q111.9375,30.9414 113.2813,30.9414 Q113.9063,30.9414 114.5,30.6758 Q115.0938,30.3945 115.7188,29.8164 L115.7188,32.5352 Z " fill="#000000"/><text fill="#D9B8FF" font-family="Helvetica" font-size="17" lengthAdjust="spacing" textLength="71" x="138.25" y="32.7798">resource</text><line style="stroke:#000D19;stroke-width:0.5;" x1="45" x2="270" y1="46.7891" y2="46.7891"/><text fill="#D9B8FF" font-family="sans-serif" font-size="14" font-weight="bold" lengthAdjust="spacing" textLength="29" x="55" y="68.7842">age</text><text fill="#D9B8FF" font-family="sans-serif" font-size="14" lengthAdjust="spacing" textLength="66" x="84" y="68.7842">: duration</text><text fill="#D9B8FF" font-family="sans-serif" font-size="14" font-weight="bold" lengthAdjust="spacing" textLength="43" x="55" y="95.0811">atime</text><text fill="#D9B8FF" font-family="sans-serif" font-size="14" lengthAdjust="spacing" textLength="70" x="98" y="95.0811">: datetime</text><text fill="#D9B8FF" font-family="sans-serif" font-size="14" font-weight="bold" lengthAdjust="spacing" textLength="43" x="55" y="121.3779">ctime</text><text fill="#D9B8FF" font-family="sans-serif" font-size="14" lengthAdjust="spacing" textLength="70" x="98" y="121.3779">: datetime</text><text fill="#D9B8FF" font-family="sans-serif" font-size="14" font-weight="bold" lengthAdjust="spacing" textLength="14" x="55" y="147.6748">id</text><text fill="#D9B8FF" font-family="sans-serif" font-size="14" lengthAdjust="spacing" textLength="48" x="69" y="147.6748">: string</text><text fill="#D9B8FF" font-family="sans-serif" font-size="14" font-weight="bold" lengthAdjust="spacing" textLength="33" x="55" y="173.9717">kind</text><text fill="#D9B8FF" font-family="sans-serif" font-size="14" lengthAdjust="spacing" textLength="48" x="88" y="173.9717">: string</text><text fill="#D9B8FF" font-family="sans-serif" font-size="14" font-weight="bold" lengthAdjust="spacing" textLength="90" x="55" y="200.2686">last_access</text><text fill="#D9B8FF" font-family="sans-serif" font-size="14" lengthAdjust="spacing" textLength="66" x="145" y="200.2686">: duration</text><text fill="#D9B8FF" font-family="sans-serif" font-size="14" font-weight="bold" lengthAdjust="spacing" textLength="90" x="55" y="226.5654">last_update</text><text fill="#D9B8FF" font-family="sans-serif" font-size="14" lengthAdjust="spacing" textLength="66" x="145" y="226.5654">: duration</text><text fill="#D9B8FF" font-family="sans-serif" font-size="14" font-weight="bold" lengthAdjust="spacing" textLength="48" x="55" y="252.8623">mtime</text><text fill="#D9B8FF" font-family="sans-serif" font-size="14" lengthAdjust="spacing" textLength="70" x="103" y="252.8623">: datetime</text><text fill="#D9B8FF" font-family="sans-serif" font-size="14" font-weight="bold" lengthAdjust="spacing" textLength="43" x="55" y="279.1592">name</text><text fill="#D9B8FF" font-family="sans-serif" font-size="14" lengthAdjust="spacing" textLength="48" x="98" y="279.1592">: string</text><text fill="#D9B8FF" font-family="sans-serif" font-size="14" font-weight="bold" lengthAdjust="spacing" textLength="34" x="55" y="305.4561">tags</text><text fill="#D9B8FF" font-family="sans-serif" font-size="14" lengthAdjust="spacing" textLength="171" x="89" y="305.4561">: dictionary[string, string]</text></g><!--reverse link resource to azure_resource--><g id="link_resource_azure_resource"><path codeLine="39" d="M157.5,335.84 C157.5,384.13 157.5,413.36 157.5,438.67 " fill="none" id="resource-backto-azure_resource" style="stroke:#FFAF37;stroke-width:2.0;"/><polygon fill="none" points="157.5,317.84,151.5,335.84,163.5,335.84,157.5,317.84" style="stroke:#FFAF37;stroke-width:2.0;"/></g><!--reverse link azure_resource to azure_ssh_public_key_resource--><g id="link_azure_resource_azure_ssh_public_key_resource"><path codeLine="40" d="M157.5,496.81 C157.5,525.67 157.5,562.78 157.5,599.37 " fill="none" id="azure_resource-backto-azure_ssh_public_key_resource" style="stroke:#FFAF37;stroke-width:2.0;"/><polygon fill="none" points="157.5,478.81,151.5,496.81,163.5,496.81,157.5,478.81" style="stroke:#FFAF37;stroke-width:2.0;"/></g><!--SRC=[XP9FJy904CNlV8fDk3MIW4G1umL9Z5w84M_6a65t2XlQtMPsAW7rkzjIRPOjVsxDUx-TzsRIbLOeCCruAr9C5qYkvTRQP42GYZ6HtKniOacqunZY_Y0q7wtXYy0KKXHFc7mYQmaXyRRISctGEN7jMGyWrqkokL7LU2Omhh3Gi4TD4d1kp4nwaJDwPTHeCOpZa0o7jlkgDxZ51cP98VqXtMvNzKOXSZ7gxDurCTCx53t_Q5FBsAZPYDXJPrkMX5UoiUY_VxBZ2oYbpLBSUDfhrOaCqe4-Mu6ocvAE8N5-Z6CajBpDSDBO2aT35G-Emi-dO5bUJi0k9vmJEfkJHF7L-Zamd5lDitoHQ3bVuzRdeYWZco6nHXT5TqKY5QthvmSaBB54L4x0sffIOPrM6Z2MtuKcZsXQUREZgDZlK2YoU0vI5lzyaB1tygoS5JZfaHm3bLGFPbXM4xKidm5jtollwe_vA5Qjbxp_xdGwmIrRmMbzviHPVm40]--></g></svg>

<svg xmlns="http://www.w3.org/2000/svg" width="315" height="680" viewBox="0 0 315 680"><rect width="168" height="39.789" x="73.5" y="438.76" fill="#3D176E" rx="2.5" ry="2.5" style="stroke:#000d19;stroke-width:.5"/><circle cx="88.5" cy="458.654" r="11" fill="#ADD1B2" style="stroke:#181818;stroke-width:1"/><path d="M91.469 464.295q-.578.297-1.219.438-.64.156-1.344.156-2.5 0-3.828-1.64-1.312-1.657-1.312-4.782t1.312-4.781q1.328-1.656 3.828-1.656.703 0 1.344.156.656.156 1.219.453v2.719q-.625-.579-1.219-.844-.594-.281-1.219-.281-1.344 0-2.031 1.078-.687 1.062-.687 3.156t.687 3.172q.688 1.062 2.031 1.062.625 0 1.219-.265.594-.281 1.219-.86z"/><text x="107.5" y="464.54" fill="#D9B8FF" font-family="Helvetica" font-size="17" textLength="126">azure_resource</text><rect width="301" height="74.086" x="7" y="599.54" fill="#3D176E" rx="2.5" ry="2.5" style="stroke:#000d19;stroke-width:.5"/><circle cx="22" cy="619.434" r="11" fill="#ADD1B2" style="stroke:#181818;stroke-width:1"/><path d="M24.969 625.075q-.578.297-1.219.438-.64.156-1.344.156-2.5 0-3.828-1.64-1.312-1.657-1.312-4.782t1.312-4.781q1.328-1.657 3.828-1.657.703 0 1.344.157.656.156 1.219.453v2.719q-.625-.579-1.219-.844-.594-.281-1.219-.281-1.343 0-2.031 1.078-.687 1.062-.687 3.156t.687 3.172q.688 1.062 2.031 1.062.625 0 1.219-.265.594-.282 1.219-.86z"/><text x="41" y="625.32" fill="#D9B8FF" font-family="Helvetica" font-size="17" textLength="259">azure_ssh_public_key_resource</text><path d="M8 639.329h299" style="stroke:#000d19;stroke-width:.5"/><text x="18" y="661.324" fill="#D9B8FF" font-family="sans-serif" font-size="14" font-weight="bold" textLength="83">properties</text><text x="101" y="661.324" fill="#D9B8FF" font-family="sans-serif" font-size="14" textLength="48">: string</text><rect width="227" height="310.758" x="44" y="7" fill="#3D176E" rx="2.5" ry="2.5" style="stroke:#000d19;stroke-width:.5"/><circle cx="112.75" cy="26.895" r="11" fill="#ADD1B2" style="stroke:#181818;stroke-width:1"/><path d="M115.719 32.535q-.578.297-1.219.438-.64.156-1.344.156-2.5 0-3.828-1.64-1.312-1.657-1.312-4.782t1.312-4.781q1.328-1.656 3.828-1.656.703 0 1.344.156.656.156 1.219.453v2.719q-.625-.578-1.219-.844-.594-.281-1.219-.281-1.344 0-2.031 1.078-.687 1.062-.687 3.156t.687 3.172q.688 1.062 2.031 1.062.625 0 1.219-.265.594-.281 1.219-.86z"/><text x="138.25" y="32.78" fill="#D9B8FF" font-family="Helvetica" font-size="17" textLength="71">resource</text><path d="M45 46.789h225" style="stroke:#000d19;stroke-width:.5"/><text x="55" y="68.784" fill="#D9B8FF" font-family="sans-serif" font-size="14" font-weight="bold" textLength="29">age</text><text x="84" y="68.784" fill="#D9B8FF" font-family="sans-serif" font-size="14" textLength="66">: duration</text><text x="55" y="95.081" fill="#D9B8FF" font-family="sans-serif" font-size="14" font-weight="bold" textLength="43">atime</text><text x="98" y="95.081" fill="#D9B8FF" font-family="sans-serif" font-size="14" textLength="70">: datetime</text><text x="55" y="121.378" fill="#D9B8FF" font-family="sans-serif" font-size="14" font-weight="bold" textLength="43">ctime</text><text x="98" y="121.378" fill="#D9B8FF" font-family="sans-serif" font-size="14" textLength="70">: datetime</text><text x="55" y="147.675" fill="#D9B8FF" font-family="sans-serif" font-size="14" font-weight="bold" textLength="14">id</text><text x="69" y="147.675" fill="#D9B8FF" font-family="sans-serif" font-size="14" textLength="48">: string</text><text x="55" y="173.972" fill="#D9B8FF" font-family="sans-serif" font-size="14" font-weight="bold" textLength="33">kind</text><text x="88" y="173.972" fill="#D9B8FF" font-family="sans-serif" font-size="14" textLength="48">: string</text><text x="55" y="200.269" fill="#D9B8FF" font-family="sans-serif" font-size="14" font-weight="bold" textLength="90">last_access</text><text x="145" y="200.269" fill="#D9B8FF" font-family="sans-serif" font-size="14" textLength="66">: duration</text><text x="55" y="226.565" fill="#D9B8FF" font-family="sans-serif" font-size="14" font-weight="bold" textLength="90">last_update</text><text x="145" y="226.565" fill="#D9B8FF" font-family="sans-serif" font-size="14" textLength="66">: duration</text><text x="55" y="252.862" fill="#D9B8FF" font-family="sans-serif" font-size="14" font-weight="bold" textLength="48">mtime</text><text x="103" y="252.862" fill="#D9B8FF" font-family="sans-serif" font-size="14" textLength="70">: datetime</text><text x="55" y="279.159" fill="#D9B8FF" font-family="sans-serif" font-size="14" font-weight="bold" textLength="43">name</text><text x="98" y="279.159" fill="#D9B8FF" font-family="sans-serif" font-size="14" textLength="48">: string</text><text x="55" y="305.456" fill="#D9B8FF" font-family="sans-serif" font-size="14" font-weight="bold" textLength="34">tags</text><text x="89" y="305.456" fill="#D9B8FF" font-family="sans-serif" font-size="14" textLength="171">: dictionary[string, string]</text><path fill="none" d="M157.5 335.84v102.83m0-120.83-6 18h12zm0 178.97v102.56m0-120.56-6 18h12z" style="stroke:#ffaf37;stroke-width:2"/></svg>
